src/normal/mp_off.svg

<!-- Generated by IcoMoon.io -->
<svg version="1.1" xmlns="http://www.w3.org/2000/svg" width="24" height="24" viewBox="0 0 24 24">
<title>microphone-off</title>
<path d="M4 14.758l1-1v-3.758h-1v2h-1v2h1v0.758zM19 12v-2h-1v5c0 1.121-1.944 2-3.54 2h-4.912l-2 1h1.452v3h-2v2h9v-2h-2v-3h0.46c2.717 0 4.54-0.757 4.54-3v-1h1v-2h-1zM13 6v-1h-1v1h1zM8 10h2v-1h-2v-1h2v-1h-2v-1h2v-1h-2v-1c0-0.551-0.246-1 0.306-1h5c0.48 0 0.863 0.347 0.959 0.799l1.504-1.504c-0.542-0.781-1.443-1.295-2.463-1.295h-5c-1.655 0-2.306 1.346-2.306 3v8.758l2-2v-0.758zM13.306 14h-1.758l-2 2h3.758c1.654 0 3.694-1.346 3.694-3v-3.758l-2 2v1.758c0 0.551-1.143 1-1.694 1zM17.556 3.396l-14 14 1 2 14-14-1-2z"></path>
</svg>

<svg xmlns="http://www.w3.org/2000/svg" width="24" height="24"><path d="M4 14.758l1-1V10H4v2H3v2h1v.758zM19 12v-2h-1v5c0 1.121-1.944 2-3.54 2H9.548l-2 1H9v3H7v2h9v-2h-2v-3h.46c2.717 0 4.54-.757 4.54-3v-1h1v-2h-1zm-6-6V5h-1v1h1zm-5 4h2V9H8V8h2V7H8V6h2V5H8V4c0-.551-.246-1 .306-1h5c.48 0 .863.347.959.799l1.504-1.504A2.996 2.996 0 0013.306 1h-5C6.651 1 6 2.346 6 4v8.758l2-2V10zm5.306 4h-1.758l-2 2h3.758C14.96 16 17 14.654 17 13V9.242l-2 2V13c0 .551-1.143 1-1.694 1zm4.25-10.604l-14 14 1 2 14-14-1-2z"/></svg>
